X: 163
M: 6/8
L: 1/8
K: D
def efg | fga efg | fed cBc | dAG FED |\
def efg | fga efg | fed cBc | d3 HD2 :|
d |\
fga gab | afg afg | afg agf | ede fed |\
fga gab | afg afg | afg agf | e3- "D.C."e2 :|

